build/assets/fonts/48f113984b06dd75617b37d6d764a02b.svg

<svg width="100" height="60" viewBox="0 0 100 60" version="1.1" xmlns="http://www.w3.org/2000/svg" xmlns:xlink="http://www.w3.org/1999/xlink"><title>Square-light</title><desc>Created with Sketch.</desc><g id="Light-Payment-badges" stroke="none" stroke-width="1" fill="none" fill-rule="evenodd" transform="translate(-130.000000, -789.000000)"><g id="Square-light" transform="translate(130.000000, 789.000000)"><rect id="Rectangle" fill="#FFF" x="0" y="0" width="100" height="60" rx="4"/><path d="M34.3229421,27.2723301 C34.3229421,28.1885437 34.584539,28.8913592 35.1222821,29.4186408 C35.6263325,29.9120388 36.3837481,30.2643689 37.5069018,30.5287379 C40.2672141,31.1770874 40.8346297,32.0027184 40.8363526,33.0428155 C40.8363526,34.4298058 39.5428212,35.5579612 37.9524685,35.5579612 L37.9430882,35.5579612 C37.1165642,35.5579612 36.3270831,35.2396117 35.7772796,34.6838835 C35.3111335,34.2131068 35.0558539,33.6085437 35.0558539,32.9817476 L33.9152796,32.9817476 C33.9152796,33.9176699 34.2918338,34.8116505 34.9724836,35.5014563 C35.7348766,36.2719417 36.8158186,36.7129126 37.9417481,36.7129126 L37.9529471,36.7129126 C39.0191486,36.7129126 40.0220806,36.3398058 40.7784433,35.6613592 C41.5506952,34.9670874 41.9761612,34.0369903 41.9761612,33.0428155 C41.9705139,30.7051456 39.8442368,29.8913592 37.7640957,29.4030097 C35.8184383,28.9459223 35.4608363,28.3270874 35.4608363,27.2723301 C35.4608363,26.1185437 36.5732695,25.1426214 37.889869,25.1426214 C39.2357582,25.1426214 40.3284736,26.0921359 40.3284736,27.2580583 L41.4695264,27.2580583 C41.4695264,26.3638835 41.0872292,25.5305825 40.3931788,24.9143689 C39.7208564,24.3163107 38.8324987,23.9880583 37.889869,23.9880583 C35.9238237,23.9880583 34.3229421,25.461165 34.3229421,27.2723301" id="Fill-1" fill="#535656"/><path d="M44.4546801,32.1283495 C44.4546801,30.0678641 45.93333,28.518932 47.9799698,28.518932 C49.9338589,28.518932 51.4278237,30.1627184 51.4278237,32.1113592 C51.4278237,34.0597087 49.9338589,35.6726214 47.9799698,35.6726214 C45.9653955,35.6726214 44.4546801,34.1715534 44.4546801,32.1283495 M43.3512443,32.0798058 C43.3512443,34.7141748 45.3991285,36.6779612 47.9799698,36.6779612 C49.3195416,36.6779612 50.593068,36.0867961 51.3336373,34.9382524 L51.3655113,34.9382524 L51.3655113,40 L52.4664584,40 L52.4664584,27.7360194 L51.3655113,27.7360194 L51.3655113,29.2694175 L51.3336373,29.2694175 C50.593068,28.1040777 49.3195416,27.5131068 47.9799698,27.5131068 C45.4477531,27.5131068 43.3512443,29.461068 43.3512443,32.0798058" id="Fill-2" fill="#535656"/><path d="M64.7557733,32.1283495 C64.7557733,30.0678641 66.2357632,28.518932 68.2820202,28.518932 C70.2341864,28.518932 71.7279597,30.1627184 71.7279597,32.1113592 C71.7279597,34.0597087 70.2341864,35.6726214 68.2820202,35.6726214 C66.2664887,35.6726214 64.7557733,34.1715534 64.7557733,32.1283495 M63.6529118,32.0798058 C63.6529118,34.7141748 65.7003174,36.6779612 68.2820202,36.6779612 C69.6207305,36.6779612 70.8794207,36.0867961 71.6343476,34.9382524 L71.6669874,34.9382524 L71.6669874,36.4707767 L72.7682217,36.4707767 L72.7682217,27.7360194 L71.6669874,27.7360194 L71.6669874,29.2694175 L71.6343476,29.2694175 C70.894927,28.087767 69.6356625,27.5131068 68.2820202,27.5131068 C65.747602,27.5131068 63.6529118,29.461068 63.6529118,32.0798058" id="Fill-3" fill="#535656"/><path d="M76.1001612,28.9976699 L76.071063,28.9976699 L76.071063,27.7360194 L74.9680101,27.7360194 L74.9680101,36.4707767 L76.071063,36.4707767 L76.071063,31.3609709 C76.071063,29.7961165 77.0146499,28.8215534 78.5257481,28.694466 L78.5257481,27.5131068 C77.4062317,27.5927184 76.5731033,27.878932 76.1001612,28.9976699" id="Fill-4" fill="#535656"/><path d="M83.4592393,28.518932 C85.1907758,28.518932 86.5431738,29.7961165 86.8267859,31.5045631 L80.1047103,31.5045631 C80.3736776,29.7961165 81.7421562,28.518932 83.4592393,28.518932 M78.9718892,32.1113592 C78.9718892,34.6174757 80.9709572,36.6779612 83.4592393,36.6779612 C85.3643123,36.6779612 87.0634962,35.4335922 87.6928413,33.612233 L86.5280504,33.612233 C86.0564484,34.9061165 84.7651184,35.6726214 83.4431587,35.6726214 C81.7576625,35.6726214 80.1833904,34.2353398 80.1047103,32.5104854 L87.9441008,32.5104854 C87.9441008,32.398932 87.9612343,32.3029126 87.9612343,32.1917476 C87.9612343,29.6681553 85.962262,27.5131068 83.4431587,27.5131068 C80.9709572,27.5131068 78.9718892,29.62 78.9718892,32.1113592" id="Fill-5" fill="#535656"/><path d="M60.9544332,27.7072816 L60.9544332,32.3431068 C60.9544332,33.3696117 60.8138237,34.2363107 60.0539194,34.9749515 C59.5153149,35.4884466 58.9463678,35.6803883 58.2192947,35.6803883 C56.2415718,35.6803883 55.5927003,34.348835 55.5927003,32.5356311 L55.5927003,27.7072816 L54.4862015,27.7072816 L54.4862015,32.5521359 C54.4862015,33.5306796 54.6289169,34.5892233 55.2449572,35.3747573 C55.9572897,36.2894175 57.0956625,36.6905825 58.2192947,36.6905825 C59.3587204,36.6905825 60.4808212,36.1940777 60.9867859,35.1183495 L61.0182771,35.1183495 L61.0182771,36.4814563 L62.0623678,36.4814563 L62.0623678,27.7072816 L60.9544332,27.7072816" id="Fill-6" fill="#535656"/><path d="M19.7653048,27.2766019 C19.4364181,27.2766019 19.1679295,27.5492233 19.1679295,27.8826214 L19.1679295,32.1226214 C19.1679295,32.4560194 19.4364181,32.7287379 19.7653048,32.7287379 L23.9466448,32.7287379 C24.2751486,32.7287379 24.5441159,32.4560194 24.5441159,32.1226214 L24.5441159,27.8826214 C24.5441159,27.5492233 24.2751486,27.2766019 23.9466448,27.2766019 L19.7653048,27.2766019 L19.7653048,27.2766019 Z M15.5842519,35.3039806 L15.5842519,24.7013592 C15.5842519,24.1184466 16.0546096,23.6417476 16.6289169,23.6417476 L27.0833199,23.6417476 C27.6577229,23.6417476 28.127602,24.1184466 28.127602,24.7013592 L28.127602,35.3039806 C28.127602,35.8868932 27.6577229,36.3637864 27.0833199,36.3637864 L16.6289169,36.3637864 C16.0546096,36.3637864 15.5842519,35.8868932 15.5842519,35.3039806 L15.5842519,35.3039806 Z M15.2857078,20.0052427 C13.4783627,20.0052427 12,21.5049515 12,23.337767 L12,36.6673786 C12,38.5007767 13.4783627,40 15.2857078,40 L28.4267204,40 C30.2339698,40 31.7123325,38.5007767 31.7123325,36.6673786 L31.7123325,23.337767 C31.7123325,21.5049515 30.2339698,20.0052427 28.4267204,20.0052427 L15.2857078,20.0052427 L15.2857078,20.0052427 Z" id="Fill-8" fill="#535656"/></g></g></svg>

<svg width="100" height="60" xmlns="http://www.w3.org/2000/svg"><g fill="none" fill-rule="evenodd"><rect fill="#FFF" width="100" height="60" rx="4"/><path d="M34.323 27.272c0 .917.262 1.62.8 2.147.503.493 1.26.845 2.384 1.11 2.76.648 3.328 1.474 3.33 2.514 0 1.387-1.294 2.515-2.885 2.515h-.009c-.826 0-1.616-.318-2.166-.874a2.416 2.416 0 0 1-.721-1.702h-1.14c0 .936.376 1.83 1.056 2.52.763.77 1.844 1.21 2.97 1.21h.01c1.067 0 2.07-.372 2.826-1.05.773-.695 1.198-1.625 1.198-2.62-.005-2.337-2.132-3.15-4.212-3.639-1.946-.457-2.303-1.076-2.303-2.13 0-1.154 1.112-2.13 2.429-2.13 1.346 0 2.438.95 2.438 2.115h1.142c0-.894-.383-1.727-1.077-2.344a3.75 3.75 0 0 0-2.503-.926c-1.966 0-3.567 1.473-3.567 3.284m10.132 4.856c0-2.06 1.478-3.61 3.525-3.61 1.954 0 3.448 1.645 3.448 3.593 0 1.949-1.494 3.562-3.448 3.562-2.015 0-3.525-1.501-3.525-3.545m-1.104-.048c0 2.634 2.048 4.598 4.629 4.598 1.34 0 2.613-.591 3.354-1.74h.032V40h1.1V27.736h-1.1v1.533h-.032c-.74-1.165-2.014-1.756-3.354-1.756-2.532 0-4.629 1.948-4.629 4.567m21.405.048c0-2.06 1.48-3.61 3.526-3.61 1.952 0 3.446 1.645 3.446 3.593 0 1.949-1.494 3.562-3.446 3.562-2.016 0-3.526-1.501-3.526-3.545m-1.103-.048c0 2.634 2.047 4.598 4.629 4.598 1.339 0 2.597-.591 3.352-1.74h.033v1.533h1.101v-8.735h-1.101v1.533h-.033c-.74-1.181-1.998-1.756-3.352-1.756-2.534 0-4.63 1.948-4.63 4.567M76.1 28.998h-.029v-1.262h-1.103v8.735h1.103v-5.11c0-1.565.944-2.54 2.455-2.667v-1.18c-1.12.079-1.953.365-2.426 1.484m7.36-.479c1.73 0 3.083 1.277 3.367 2.986h-6.722c.269-1.709 1.637-2.986 3.354-2.986m-4.487 3.592c0 2.506 1.999 4.567 4.487 4.567 1.905 0 3.604-1.244 4.234-3.066h-1.165c-.472 1.294-1.763 2.06-3.085 2.06-1.685 0-3.26-1.437-3.338-3.162h7.84c0-.111.016-.207.016-.318 0-2.524-1.999-4.679-4.518-4.679-2.472 0-4.471 2.107-4.471 4.598m-18.018-4.404v4.636c0 1.027-.14 1.893-.9 2.632-.539.513-1.108.705-1.835.705-1.977 0-2.626-1.331-2.626-3.144v-4.829h-1.107v4.845c0 .979.143 2.037.759 2.823.712.914 1.85 1.316 2.974 1.316 1.14 0 2.262-.497 2.768-1.573h.031v1.363h1.044v-8.774h-1.108m-41.189-.43a.603.603 0 0 0-.597.606v4.24c0 .333.268.606.597.606h4.182a.604.604 0 0 0 .597-.606v-4.24a.604.604 0 0 0-.597-.606h-4.182zm-4.18 8.027V24.701c0-.583.47-1.06 1.044-1.06h10.454c.575 0 1.045.477 1.045 1.06v10.603c0 .583-.47 1.06-1.045 1.06H16.63a1.056 1.056 0 0 1-1.045-1.06zm-.3-15.299c-1.807 0-3.285 1.5-3.285 3.333v13.33C12 38.5 13.478 40 15.286 40h13.14c1.808 0 3.286-1.5 3.286-3.333v-13.33c0-1.832-1.478-3.332-3.285-3.332H15.286z" fill="#535656"/></g></svg>
